assets/Virgo/Flat/virgo_flat.svg

<svg width="32" height="32" viewBox="0 0 32 32" fill="none" xmlns="http://www.w3.org/2000/svg">
<path d="M2 6C2 3.79086 3.79086 2 6 2H26C28.2091 2 30 3.79086 30 6V26C30 28.2091 28.2091 30 26 30H6C3.79086 30 2 28.2091 2 26V6Z" fill="#8D65C5"/>
<path d="M28.62 16.99V13.66C28.62 11.09 26.53 8.99004 23.95 8.99004C22.96 8.99004 22.04 9.30004 21.28 9.83004V9.67004C21.28 7.46004 19.49 5.67004 17.28 5.67004C16.09 5.67004 15.01 6.20004 14.28 7.03004C13.55 6.20004 12.47 5.67004 11.28 5.67004C10.09 5.67004 9.01003 6.20004 8.28003 7.03004C7.55003 6.20004 6.47003 5.67004 5.28003 5.67004C4.73003 5.67004 4.28003 6.12004 4.28003 6.67004C4.28003 7.22004 4.73003 7.67004 5.28003 7.67004C6.38003 7.67004 7.28003 8.57004 7.28003 9.67004V12.67V21.67C7.28003 22.22 7.73003 22.67 8.28003 22.67C8.83003 22.67 9.28003 22.22 9.28003 21.67V12.67V9.67004C9.28003 8.57004 10.18 7.67004 11.28 7.67004C12.38 7.67004 13.28 8.57004 13.28 9.67004V21.67C13.28 22.22 13.73 22.67 14.28 22.67C14.83 22.67 15.28 22.22 15.28 21.67V9.67004C15.28 8.57004 16.18 7.67004 17.28 7.67004C18.38 7.67004 19.28 8.57004 19.28 9.67004V13.66V14.67V16.99C19.28 19.14 20.42 21.12 22.26 22.21L20.13 23.78C19.69 24.11 19.59 24.73 19.92 25.18C20.12 25.45 20.42 25.59 20.73 25.59C20.94 25.59 21.14 25.53 21.32 25.39L23.95 23.45L26.58 25.39C26.76 25.52 26.97 25.59 27.17 25.59C27.48 25.59 27.78 25.45 27.98 25.18C28.31 24.74 28.21 24.11 27.77 23.78L25.64 22.21C27.48 21.12 28.62 19.14 28.62 16.99ZM26.62 16.99C26.62 18.46 25.82 19.83 24.53 20.54L23.95 20.87L23.37 20.54C22.08 19.82 21.28 18.46 21.28 16.99V14.67V13.66C21.28 12.19 22.48 10.99 23.95 10.99C25.42 10.99 26.62 12.19 26.62 13.66V16.99V16.99Z" fill="white"/>
</svg>

<svg xmlns="http://www.w3.org/2000/svg" width="32" height="32" fill="none"><path fill="#8D65C5" d="M2 6a4 4 0 0 1 4-4h20a4 4 0 0 1 4 4v20a4 4 0 0 1-4 4H6a4 4 0 0 1-4-4V6Z"/><path fill="#fff" d="M28.62 16.99v-3.33c0-2.57-2.09-4.67-4.67-4.67-.99 0-1.91.31-2.67.84v-.16c0-2.21-1.79-4-4-4a4 4 0 0 0-3 1.36 4 4 0 0 0-3-1.36 4 4 0 0 0-3 1.36 4 4 0 0 0-3-1.36c-.55 0-1 .45-1 1s.45 1 1 1c1.1 0 2 .9 2 2v12c0 .55.45 1 1 1s1-.45 1-1v-12c0-1.1.9-2 2-2s2 .9 2 2v12c0 .55.45 1 1 1s1-.45 1-1v-12c0-1.1.9-2 2-2s2 .9 2 2v7.32a6.07 6.07 0 0 0 2.98 5.22l-2.13 1.57a1.003 1.003 0 0 0 .6 1.81c.21 0 .41-.06.59-.2l2.63-1.94 2.63 1.94c.18.13.39.2.59.2a1.005 1.005 0 0 0 .6-1.81l-2.13-1.57a6.07 6.07 0 0 0 2.98-5.22Zm-2 0c0 1.47-.8 2.84-2.09 3.55l-.58.33-.58-.33a4.07 4.07 0 0 1-2.09-3.55v-3.33c0-1.47 1.2-2.67 2.67-2.67s2.67 1.2 2.67 2.67v3.33Z"/></svg>
